dist/assets/images/about/logo-5.svg

<svg width="140" height="23" viewBox="0 0 140 23" fill="none" xmlns="http://www.w3.org/2000/svg">
<path fill-rule="evenodd" clip-rule="evenodd" d="M42.5617 4.01039C41.6124 3.79792 40.4785 3.71825 39.1072 3.71825H36.9448V7.1709C37.6305 7.1709 38.2106 7.1709 38.6589 7.19746C39.2127 7.22402 39.7664 7.33026 40.3202 7.51617C40.7422 7.67552 41.1113 7.91455 41.4542 8.28638C41.7706 8.6582 41.9288 9.1097 41.9288 9.61432C41.9288 10.1455 41.8497 10.597 41.6915 10.9423C41.5333 11.3141 41.2696 11.6328 40.9267 11.8718C40.5048 12.164 40.0038 12.3764 39.3973 12.4561C38.7907 12.5624 38.026 12.6155 37.0767 12.6155H36.9185V16.0947H38.949C40.5048 16.0947 41.8233 15.9088 42.8782 15.537C43.933 15.1651 44.8823 14.6074 45.7261 13.8903C46.359 13.3591 46.8337 12.6952 47.1765 11.8984C47.5193 11.1016 47.6775 10.3049 47.6775 9.48153C47.6775 8.41917 47.4402 7.51617 46.9919 6.74596C46.5436 6.00231 45.8844 5.3649 45.0141 4.88684C44.3285 4.51501 43.511 4.19631 42.5617 4.01039Z" fill="black"/>
<path fill-rule="evenodd" clip-rule="evenodd" d="M35.151 22.9469V3.71825H29.6133V22.9469H35.151Z" fill="black"/>
<path fill-rule="evenodd" clip-rule="evenodd" d="M59.5969 22.9734V10.8095L53.7954 5.71016V22.9734H59.5969Z" fill="black"/>
<path fill-rule="evenodd" clip-rule="evenodd" d="M71.5429 3.74538L68.1938 7.59642L71.9121 10.8632L72.5449 10.1992L72.6768 10.0664V23.0006H78.8475V3.63914H71.6484L71.5429 3.74538Z" fill="black"/>
<path fill-rule="evenodd" clip-rule="evenodd" d="M67.0597 8.92436L60.9418 3.63914H53.7954V3.69226L67.4289 15.6172L70.8043 12.0583L67.0597 8.92436Z" fill="black"/>
<path fill-rule="evenodd" clip-rule="evenodd" d="M120.222 3.66455H114.658V22.9463H120.222C120.222 16.5191 120.222 10.0918 120.222 3.66455Z" fill="black"/>
<path fill-rule="evenodd" clip-rule="evenodd" d="M121.621 3.71825V7.88799H131.457V3.71825H121.621Z" fill="black"/>
<path fill-rule="evenodd" clip-rule="evenodd" d="M94.5645 3.66455L103.451 22.9994H108.752L100.181 3.66455H94.5645Z" fill="black"/>
<path fill-rule="evenodd" clip-rule="evenodd" d="M84.2266 22.9994H90.2917L91.9267 19.0422H99.7323L98.0973 15.4833H93.3507L95.6185 10.1715L92.7442 3.66455L84.2266 22.9994Z" fill="black"/>
<path fill-rule="evenodd" clip-rule="evenodd" d="M10.3379 3.58545L19.2247 22.9203H24.5251L15.9548 3.58545H10.3379Z" fill="black"/>
<path fill-rule="evenodd" clip-rule="evenodd" d="M0 22.9203H6.06517L7.70013 18.9896H15.5057L13.8708 15.4042H9.12413L11.392 10.1189L8.51761 3.58545L0 22.9203Z" fill="black"/>
<path d="M137.838 0C137.258 0 136.73 0.23903 136.335 0.637413C135.913 1.08891 135.675 1.59353 135.675 2.20439C135.675 2.78868 135.913 3.2933 136.335 3.69169C136.756 4.14319 137.284 4.3291 137.838 4.3291C138.444 4.3291 138.972 4.14319 139.367 3.69169C139.789 3.26674 140 2.76212 140 2.20439C140 1.56697 139.789 1.06236 139.367 0.637413C138.972 0.23903 138.444 0 137.838 0ZM136.941 3.2933V1.08891H137.864C138.101 1.08891 138.26 1.11547 138.365 1.14203C138.471 1.16859 138.55 1.24827 138.629 1.3545C138.682 1.46074 138.734 1.56697 138.734 1.69977C138.734 1.85912 138.682 1.99192 138.602 2.12471C138.497 2.23095 138.365 2.31062 138.18 2.33718C138.286 2.3903 138.365 2.44342 138.418 2.52309C138.471 2.60277 138.576 2.70901 138.682 2.89492L138.945 3.31986H138.418L138.101 2.8418C137.996 2.68245 137.917 2.54965 137.864 2.52309C137.811 2.46998 137.785 2.44342 137.732 2.44342C137.679 2.41686 137.6 2.41686 137.495 2.41686H137.389V3.34642H136.941V3.2933ZM137.389 2.01848H137.706C137.917 2.01848 138.049 2.01848 138.101 1.99192C138.154 1.96536 138.207 1.9388 138.233 1.88568C138.26 1.83256 138.286 1.77945 138.286 1.72633C138.286 1.64665 138.26 1.59353 138.233 1.54042C138.207 1.4873 138.128 1.46074 138.075 1.46074C138.049 1.46074 137.943 1.46074 137.759 1.46074H137.389V2.01848ZM136.572 0.929561C136.915 0.610855 137.363 0.398383 137.838 0.398383C138.312 0.398383 138.761 0.610855 139.103 0.929561C139.446 1.30139 139.631 1.69977 139.631 2.23095C139.631 2.70901 139.446 3.16051 139.103 3.47921C138.761 3.82448 138.312 4.01039 137.838 4.01039C137.363 4.01039 136.915 3.82448 136.572 3.47921C136.229 3.16051 136.044 2.70901 136.071 2.23095C136.071 1.67321 136.255 1.30139 136.572 0.929561Z" fill="black"/>
</svg>

<svg width="140" height="23" fill="none" xmlns="http://www.w3.org/2000/svg"><path fill-rule="evenodd" clip-rule="evenodd" d="M42.562 4.01c-.95-.212-2.084-.292-3.455-.292h-2.162v3.453c.685 0 1.266 0 1.714.026a6.123 6.123 0 011.661.32c.422.159.791.398 1.134.77.317.371.475.823.475 1.327 0 .531-.08.983-.238 1.328a2.17 2.17 0 01-.764.93 3.423 3.423 0 01-1.53.584c-.606.106-1.371.16-2.32.16h-.158v3.479h2.03c1.556 0 2.874-.186 3.93-.558a8.995 8.995 0 002.847-1.647c.633-.53 1.108-1.195 1.45-1.992a6.017 6.017 0 00.502-2.416c0-1.063-.238-1.966-.686-2.736-.448-.744-1.108-1.381-1.978-1.86a8.595 8.595 0 00-2.452-.876zm-7.411 18.937V3.718h-5.538v19.229h5.538zm24.446.026V10.81l-5.802-5.1v17.263h5.802zM71.543 3.745l-3.35 3.851 3.72 3.267.632-.664.132-.133v12.935h6.17V3.639h-7.199l-.105.106z" fill="#000"/><path fill-rule="evenodd" clip-rule="evenodd" d="M67.06 8.924L60.942 3.64h-7.147v.053L67.43 15.617l3.375-3.559-3.744-3.134zm53.162-5.259h-5.564v19.281h5.564V3.665zm1.399.053v4.17h9.836v-4.17h-9.836zm-27.057-.053l8.887 19.334h5.301l-8.571-19.334h-5.617zM84.227 23h6.065l1.635-3.958h7.805l-1.635-3.559h-4.746l2.267-5.312-2.874-6.506-8.517 19.334zM10.338 3.585l8.887 19.335h5.3l-8.57-19.335h-5.617zM0 22.92h6.065L7.7 18.99h7.806l-1.635-3.586H9.124l2.268-5.285-2.874-6.534L0 22.92z" fill="#000"/><path d="M137.838 0c-.58 0-1.108.239-1.503.637-.422.452-.66.957-.66 1.567 0 .585.238 1.09.66 1.488.421.451.949.637 1.503.637.606 0 1.134-.186 1.529-.637.422-.425.633-.93.633-1.488 0-.637-.211-1.142-.633-1.567A2.121 2.121 0 00137.838 0zm-.897 3.293V1.09h.923c.237 0 .396.026.501.053.106.027.185.106.264.213a.754.754 0 01.105.345c0 .16-.052.292-.132.425a.712.712 0 01-.422.212.576.576 0 01.238.186c.053.08.158.186.264.372l.263.425h-.527l-.317-.478c-.105-.16-.184-.292-.237-.319-.053-.053-.079-.08-.132-.08-.053-.026-.132-.026-.237-.026h-.106v.93h-.448v-.054zm.448-1.275h.317c.211 0 .343 0 .395-.026.053-.027.106-.053.132-.106a.371.371 0 00.053-.16.38.38 0 00-.053-.186c-.026-.053-.105-.08-.158-.08h-.686v.558zM136.572.93c.343-.32.791-.532 1.266-.532.474 0 .923.213 1.265.532.343.371.528.77.528 1.3 0 .479-.185.93-.528 1.25a1.77 1.77 0 01-2.531 0 1.573 1.573 0 01-.501-1.249c0-.558.184-.93.501-1.301z" fill="#000"/></svg>
